X:522
T: SIND WIR GESCHIEDEN
N: E0509
O: Europa, Mitteleuropa, Deutschland
R: Liebes - Lied
M: 2/4
L: 1/8
K: G
=F | _B2c2 | d2c
d | _edc_B | c3
=F | _B2c2 | d_e=f
e | d_BcA | _B3
c | c2c2 | AG=F
d | d2d2 | _BAG
G | _edc_B | A3
c | _BGAF | G3

@@@ Tune index: 4172
